X: 41
T: No_47_Corn-grinding_Song_(b).krn
N: Derived from No_47_Corn-grinding_Song_(b).krn
%%abc-version 2.0
%%abcx-abcm2ps-target-version 5.9.1 (29 Sep 2008)
%%abc-creator hum2abc beta
%%abcx-conversion-date 2019/03/15 08:25:35
%%humdrum-veritas 1143292066
%%humdrum-veritas-data 1971667683
%%linebreak <none>
%%barnumbers 0
L: 1/8
M: 3/4
K: C clef=bass
[K:clef=bass][M:3/4]C2C2C3/A,/ | 
C2C2C z ]|:  
[M:2/4]C2CC | 
C2A,G, | 
G, z CD/C/ | 
D/C/C C3/A,/ | 
C/A,3/ A,3/G,/ | 
[M:3/4]A,G,/F,/ E,C, E, z | 
E,C, C,E, C,G, | 
[M:2/4]C3/A,/ G,/E,/G, | 
A,/G,3/ G,3/E,/ | 
G,/E,3/ C,E, | 
A,G, (3G,/E,/E,/ (3G,/E,/E,/ | 
C,C, C, z | 
E,/C,3/C,2 | 
E,/C,3/C,2 | 
z C,C,2 :|]  
C3/A,/ G,/E,/G, [I:setbarnb 19]| 
A,/G,3/ G,3/E,/ | 
G,/E,3/ C,E, | 
A,G, (3G,/E,/E,/ (3G,/E,/E,/ | 
C,C, C, z | 
E,/C,3/C,2 | 
E,/C,3/C,2 | 
z C,C,2 :|]  
C2CC | 
C2A,G, | 
G, z CD/C/ | 
D/C/C C3/A,/ | 
C/A,3/ A,/G,3/ | 
[M:3/4]A,G,/E,/ E,C, E, z | 
C,C, C,E, C,G, | 
[M:2/4]C3/A,/ G,/E,/G, | 
A,/G,3/ G,3/E,/ | 
G,/E,3/ C,E, | 
A,G, (3G,/E,/E,/ (3G,/E,/E,/ | 
C,C, C, z | 
E,/C,3/C,2 | 
E,/C,3/C,2 | 
z C,C,2 | 
[M:3/4]G,G, E,/E,/C,/C,/ E,G, | 
[M:2/4]E,/C,3/ C, z | 
C,E, C,A,, | 
C,C, C,C, | 
[M:3/4]C,G, G,/E,3/ C, z | 
E,/C,/C, E,/C,/C,3//C,// E,G, | 
C,C, C,C, C,C, |]  



